!!!OTL: Peter Unverdorben Zu mitterfasten es beschach,
!!!ARE: Europa, Mitteleuropa, Deutschland
!!!YOR: 1, S. 286
!!    1439 Handschrift; vom Hg. metrisch interpretierte Fassung
!!!SCT: Q0026A
!!!YEM: Copyright 1995, estate of Helmut Schaffrath.
**kern
*ICvox
*Ivox
!! Irregular meter.
*MX
*k[b-]
*d:
{4d
4d
4g
=1
2a
4g
4e
2fn
=2
2d
4r}
=3
{4e
4fn
4g
=4
4d
4d
4cn
4cn
4g
=5
4a
4a
4fn}
=6
{4fn
=7
4g
4g
4fn
2e
4fn
=8
4g
2fn
2r}
==
!!!AGN: Ballade, Gefangenschaft, Hinrichtung
!! Original in Mensuralnotation. Anderer Uebertragungsversuch als Q0026.
!!!ONB: ESAC (Essen Associative Code) Database: BALLADE
!!!AMT: irregular
!!!AIN: vox
!!!EED: Helmut Schaffrath
!!!EEV: 1.0
*-
